X:1408
T:Money musk
C:anon.
O:Ireland
R:Reel
Z:Transcribed by Frank Nordberg - http://www.musicaviva.com
F:http://abc.musicaviva.com/tunes/ireland/money-musk.abc
M:2/4
L:1/16
K:A
f|"A"eAcA eA"D"df|"A"eAcA "E7"Bcde|"A"eAcA eaga|"D"fd"E7"B"_(4)"e "A"cAAf|\
"A"eAcA eA"D"df|"A"eAcA "E7"Bcde|"A"eAcA eaga|"D"fd"E7"B"_(4)"e "A"cAA::"_(0)"e|\
"A"aeca eace|"A"ae"E7"db "A"ca"E7"Bg|"A"aeca eaga|"D"fd"E7"B"_(4)"e "A"cAA"_(0)"e|\
"A"aeca eace|"A"ae"E7"db "A"ca"E7"Bg|"A"aeca eaga|"D"fd"E7"B"_(4)"e "A"cAA:|
W:
W:
W:  From Musica Viva - http://www.musicaviva.com
W:  the Internet center for free sheet music downloads.
